X:1
T:Donna bella
T:Donna bella
T:Cornelius Verdonck
T:Source : Symphonia Angelica---Anversa---P.Phalesio & G.Bellero---1585. Editor : André Vierendeels (18/01/14).
C:Cornelius Verdonck
%%score [ 1 [ 2 3 ] 4 ]
L:1/8
Q:1/4=100
M:4/4
K:C
V:1 treble nm="Canto" snm="C"
V:2 treble-8 nm="Tenor 1" snm="T 1"
V:3 treble-8 nm="Tenor 2" snm="T 2"
V:4 bass nm="Basso" snm="B"
V:1
 D2 E2 F4- | F2 E4 D2 | E4 E2 c2- | c2 B2 A4 | G2 F2 E4 | E4 z2 A2- | A2 A2 _B4 | A2 G2 ^F4 | %8
w: Don- na bel-|* la'e gen-|ti- le, tan-|* t'io v'a-|m'e de- si-|o, tan-|* t'io v'a-|m'e de- si-|
"^-natural" ^F2 =F2 G2 A2 | _B4 A4 | c2 BA G3 A | Bc dc BA GF | E2 D2 E4 | ^F8 | A8- | A8 | %16
w: o, ch'o- gn'al- tra-|co- sa,|an- zi me stes- *||* s'o- bli-|o,|dun-||
 A4 z2 ^F2 | ^G2 A2 B4 | B2 B2 e4- | e2 d2 cB cd | c2 B2 A4- | A4 E4 | FG AG FD EF | GA _BA G2 F2 | %24
w: que per-|che vo- le-|te, cru- del|_ ch'io vi- * * *|* v'in pian-|* t'in|pe- * * * * * * *|* * * * * n'e|
 E2 F4 E2 | F8 | z4 z2 A2 | A2 B2 c2 B2 | A4 B4 | z4 A4 | F2 G2 A2 G2 | d4 G4- | G4 z2 c2- | %33
w: no- * *|ta,|si|con un si po-|te- te,|si|con va si po-|te- te,|_ far|
 c2 BA GF ED | C2 F4 ED | ^C2 D2 E3 F |"^-natural" C2 D2 E4 | D4 z4 | z2 A4 GF | ED CB, A,2 D2 | %40
w: _ mi gio- ir, _ _ _|_ fa mi gio-|ir de- sem- pi-|ter- na gio-|ia,|far mi gio-|ir _ _ _ _ di|
 B,2 E2 C2 D2 | E3 ^F ^G3 A | B2 A4 ^G2 | A2 c4 BA | GF ED C2 C2 | F2 A2 G2 ^F2 | G4 E2 e2- | %47
w: sem- pi- ter- na|gio- * * *||ia, far mi gio-|ir _ _ _ _ di|sem- pi- ter- na|gio- ia, far|
 e2 dc BA GF | E2 G2 c3 c | A2 G2 A4 | G4 z2 d2- |"^b" d2 cB AG FE | D2 A4 GF | ED CB, A,2 c2 | %54
w: _ mi gio- ir _ _ _|_ di sem- pi-|ter- na gio-|ia, far|_ mi gio- ir _ _ _|_ far mi- gio-|ir _ _ _ _ di|
 c3 _B A2 G2 | A8- | A8 | A8 |] %58
w: sem- pi- ter- na|gio-||ia.|
V:2
 z4 A2 B2 | c4 B2 d2 | ^c4 c2 e2- | e2 e2 f4 | e2 d2 B4 | ^c4 d4- | d2 e2 f4 | f2 d2 d4 | %8
w: Don- na|bel- la'e gen-|ti- le, tan-|* t'io v'a-|m'e de- si-|o, tan-|* t'io v'a-|m'e de- si-|
 d2 A2 e2 f2 | f2 e2 f4 | a2 gf e2 dc | d6 e2 | ^c2 d4 c2 | d8 |"^-natural" f8- | f8 | e4 z2 A2 | %17
w: o, ch'o- gn'al- tra|co- * sa,|an- zi me stes _ _|_ s'o-|bli- * *|o,|dun-||que per-|
 e2 e2 g4- | g4 g4 | z4 z2 c2 | g2 g2 ed ef | e2 d2 ^c2 c2 | z4 z2 A2 | de fe d2 d2 | c8 | c8 | %26
w: che vo- le-|* te,|cru-|del ch'io vi- * * *|* v'in pian- to,|in|pe- * * * * n'e|no-|ta,|
 z4 e4 | f2 g2 a2 g2 | ^f4 g2 G2 | B2 c2 d4- | d2 cB A2 e2 | f4 e2 e2- | e2 dc BA GF | %33
w: si|con un si po-|te- te, si|con un si|_ _ _ _ po-|te- te, far|_ mi gio- ir _ _ _|
 E2 G2 d2 B2 | A6 G2 | A3 B ^c3 d | e2 d4 ^c2 | d2 a4 gf | ed cB AB c2 | g2 fe dc BA | G4 A4 | %41
w: _ di sem- pi-|ter- na|gio- * * *||ia, far mi gio-|ir, _ _ _ _ _ _|far mi- gio- ir _ _ _|_ di|
 B2 c2 e4- | e2 c2 e4 | e4 e4 | e4 e2 a2- | ag fe d2 c2 | d4 g2 g2 | g4 g4 | gf ed ef ge | %49
w: sem- pi- ter-|* na gio-|ia, di|sem- pi- ter-|* * * * * na|gio- ia, di|sem- pi-|ter- * * * * * * *|
 ^f2 g2 f4 | g2 d2 d3 e | f6 d2 | AB cd c4- | c2 A2 z2 a2- | a2 gf e2 d2 | ^c2 d2 e2 f2 | %56
w: * na gio-|ia, di sem- pi-|ter- na|gio- * * * *|* ia, far|_ mi gio- ir, gio-|ir di sem- pi-|
"^#" c2 d2 e4 | ^f8 |] %58
w: ter- na gio-|ia.|
V:3
 z8 | z8 | z8 | A2 B2 c4- | c2 A4 ^G2 | A4 A2 f2- | f2 e2 d4 | c2 _B2 A4 | A2 d2 c2 A2 | G4 F4 | %10
w: |||na bel- la'e|* gen- ti-|le, tan- t'io|* v'a m'e|de- si- o,|ch'o- gn'al- tra co-|sa, an-|
 z4 c2 BA | G4 G4 | A8 | D8 | d8- | d8 | ^c4 z2 d2 | B2 ^c2 d4 | d4 z4 | z2 d2 e4- | e2 d2 cB cd | %21
w: zi me stes-|s'o- bli-|o,|dun-|que||per- che|vo- le- te,|cru-|del ch'io|_ vi- v'in * * *|
 c2 B2 A4- | A4 A4 | _Bc dc B4- | B2 A2 G4 | F4 z2 A2 | A2 B2 c4 | z4 z2 d2 | d4 d2 d2 | d2 e2 f4 | %30
w: * pian- t'in|* pe-|n'e * * * *|* no- ta,|si con|un si po-|te-|te, si con|un si po-|
 z2 e2 dc c2- | c2 B2 c4 | z4 z2 e2- | e2 dc BA GF | E2 C2 D4 | E2 F2 E2 A2- | A2 _B2 A4 | D4 z4 | %38
w: te- te, * *|* * far|mi|_ gio- ir, gio- _ _ _|_ or di|sem- pi- ter- na|* gio- ia,|far|
 z2 f4 ed | cB AG F4 | z2 c4 BA | ^G2 A2 B3 c | G2 A2 B4 | A4 z4 | z2 G2 A2 A2 | c4 B2 c2- | %46
w: mi gio- ir,|far _ _ _ _|mi gio- ir|di sem- pi- ter-|na gio- ia,|di|sem- pi- ter-|na gio- ia,|
 cB/A/ B2 c2 c2- | c2 BA GF ED | C2 c2 c2 c2 | d2 e2 d4 | G2 _B4 AG | A4 F4- | F2 ED E2 E2 | %53
w: * * * * far mi|_ gio- ir di _ _ _|_ sem- pi- ter-|na gio- ia,|far mi- gio- ir,|far mi|_ gio- ir, gio- ir,|
 A3 B c2 f2- | f2 ed ^c2 d2 |"^#" e2 f2 c2 d2 | e2 d4 ^c2 | d8 |] %58
w: far _ _ mi|_ gio- ir di sem-|pi- ter- na gio-|ia. * *|Don-|
V:4
 z4 D,2 D,2 | A,4 G,2 B,2 | A,4 A,2 A,2- | A,2 G,2 F,4 | C,2 D,2 E,4 | A,,4 D,4- | D,2 C,2 _B,,4 | %7
w: na bel-|la'e gen- ti-|le, tan- t'io|* v'a- m'e|de- si- o,|tan- t'io|* v'a m'e|
 F,,2 G,,2 D,4 | D,4 z4 | z8 | z8 | z8 | z8 | z8 | D,8- | D,8 | A,,4 z2 D,2 | E,2 A,2 G,4 | %18
w: de- si- o,|dun-||||||que||per- che|vo- le- te,|
 G,2 G,2 C4- | C2 B,2 A,G, A,B, | C2 G,2 A,4- | A,4 A,,4 | D,E, F,E, D,2 C,2 | _B,,8 | C,8 | %25
w: cru- del ch'io|_ vi- v'in * * *|* pian- t'in|* pe-|n' * * * * no-|ia,||
 F,,4 F,4 | F,2 G,2 A,4 | z4 z2 G,2 | D,4 G,,4 | z4 z2 D,2 | D,2 E,2 F,2 E,2 | D,4 C,2 C2- | %32
w: si con|un si po-|te-|te si|con|un si po- te-|te, far mi-|
 C2 B,A, G,F, E,D, | C,2 G,,2 G,,2 G,,2 | A,,4 _B,,4 | A,,4 A,,4 | z8 | z2 F,4 E,D, | %38
w: _ gio- ir di _ _ _|_ sem- pi- ter-|na gio-|ia, far||mi- gio- ir|
 C,B,, A,,G,, F,,2 C,2 | C,4 D,4 | E,4 F,4 | E,4 E,2 E,A,, | E,2 F,2 E,4 | A,,2 A,4 G,F, | %44
w: di _ _ _ _ sem-|pi- ter-|na gio-|ia, sem- pi- ter-|na gio- ia,|far mi gio- ir|
 E,D, C,B,, A,,2 F,2 | F,2 F,2 G,2 A,2 | G,4 C,4 | z8 | z8 | z8 | z2 G,4 F,E, | D,4 D,4- | %52
w: di _ _ _ _ sem-|pi- ter- na gio-|ia, far||||mi- gio- ir,|far mi-|
 D,2 C,B,, A,,4- | A,,4 F,4 |"^b" F,2 G,2 A,2 B,2 | A,8- | A,8 | D,8 |] %58
w: _ gio- ir di|_ sem-|pi- ter- na gio-|ia.|||

